src/assets/icons/pul-icon-plus-sign-alt.svg

<!-- Generated by IcoMoon.io -->
<svg version="1.1" xmlns="http://www.w3.org/2000/svg" width="16" height="16" viewBox="0 0 16 16">
<title>plus-sign-alt</title>
<path d="M7.667 0c-4.227 0-7.667 3.439-7.667 7.667s3.439 7.667 7.667 7.667 7.667-3.439 7.667-7.667-3.439-7.667-7.667-7.667zM12.667 9c0 0.184-0.149 0.333-0.333 0.333h-3v3c0 0.184-0.149 0.333-0.333 0.333h-2.667c-0.184 0-0.333-0.149-0.333-0.333v-3h-3c-0.184 0-0.333-0.149-0.333-0.333v-2.667c0-0.184 0.149-0.333 0.333-0.333h3v-3c0-0.184 0.149-0.333 0.333-0.333h2.667c0.184 0 0.333 0.149 0.333 0.333v3h3c0.184 0 0.333 0.149 0.333 0.333v2.667z"></path>
</svg>

<svg xmlns="http://www.w3.org/2000/svg" viewBox="0 0 16 16">
    <path d="M7.667 0C3.44 0 0 3.439 0 7.667s3.439 7.667 7.667 7.667 7.667-3.439 7.667-7.667S11.895 0 7.667 0zm5 9a.333.333 0 0 1-.333.333h-3v3a.333.333 0 0 1-.333.333H6.334a.333.333 0 0 1-.333-.333v-3h-3A.333.333 0 0 1 2.668 9V6.333c0-.184.149-.333.333-.333h3V3c0-.184.149-.333.333-.333h2.667c.184 0 .333.149.333.333v3h3c.184 0 .333.149.333.333V9z"/>
</svg>
